X:1
T:James Gibb editions
T:O vos omnes - Lasso
T:#
%%score [ 1 2 3 4 ]
L:1/8
Q:1/4=96
M:4/4
K:C
V:1 treble nm="Soprano" snm="S"
V:2 treble nm="Alto" snm="A"
V:3 treble-8 nm="Tenor" snm="T"
V:4 bass nm="Bass" snm="B"
V:1
"^Orlando di Lasso\n(1532-94)""^O vos omnes" G8 | G4 G4 | ^F4 G4 | A4 A4 | f4 e4 | d4 B4 | %6
w: O|vos o-|mnes qui|tran- si-|tis per|vi- am,|
 B4 ^c4- | c2 ^c2 d4 | G2 A2 _B4 |S A8 || d6 (e2- | e2 dc B2 c2-) | c2 _B4 A2- | A2 G2 A4- | %14
w: at- ten\-|* di- te|et vi- de-|te.|Si est|* * * * do\-|* lor si\-|* mi- lis|
 A2 A4 B2 | c8 | B4 A4 | B8!fine! |][Q:1/4=95][Q:1/4=95][Q:1/4=95][Q:1/4=95] d4 B2 B2 | B6 c2- | %20
w: * si- cut|do-|lor me-|us.|At- ten- di-|te u\-|
 c2 d2 e4 | c2 (f3 e e2- | e2 d2) e4- | e4 z2 c2 | A2 f4 d2 | f2 e4 (d2- | dc/B/ AB c4) | (B4 A4) | %28
w: * ni- ver-|si po\- * *|* pu- li,|* et|vi- de- te|do- lo- rem||me\- *|
 G8!D.S.! |] %29
w: um.|
V:2
 D6 D2 | E8 | D2 D4 E2 | F4 (F3 G | AGAB c2 c2) | A4 ^G4 | ^G4 A4- | A2 A2 A2 _B2- | B2 A2 G4 | %9
w: O vos|o-|mnes qui tran-|si- tis *|* * * * * per|vi- am,|at- ten\-|* di- te et|* vi- de-|
 ^F8 || (^F4 G3 =F | E2 F2) G4- | G4 F2 (F2- | F2 ED F2 E2) | E4 ^F4 | A4 G4 | ^F2 (G3 F/E/ F2) | %17
w: te.|Si * *|* est do\-|* lor si\-|* * * * mi-|lis si-|cut do-|lor me\- * * *|
 G8 |] z4 G4 | E2 E2 E4 | F4 G2 A2- | A2 D2 (A3 G | F2 F2) E4 | z2 C2 A,2 F2- | F2 D2 _B4 | %25
w: us.|At-|ten- di- te|u- ni- ver\-|* si po\- *|* pu- li,|et vi- de\-|* te do-|
 A4 (G3 F/E/ | DE F4) (E2- | ED G3 ^F/E/ F2 | G8) |] %29
w: lo- rem * *|* * * me\-||um.|
V:3
 B8 | B4 c4 | A4 B4 | c4 c4 | c4 g4 | f4 e2 B2 | e6 e2 | e4 ^f2 g2 | d8 | d8 || (A4 B4) | c4 e4 | %12
w: O|vos o-|mnes qui|tran- si-|tis per|vi- am, at-|ten- di-|te et vi-|de-|te.|Si *|est do-|
 d4 d4 | d6 ^c2 | ^c4 d4 | e2 f4 e2 | d8 | d8 |][M:4/4] z8 | z8 | z8 | z8 | z8 |[M:4/4] z8 | z8 | %25
w: * lor|si- mi-|lis si-|cut do- lor|me-|us.||||||||
 z8 | z8 | z8 | z8 |] %29
w: ||||
V:4
 G,8 | E,4 C,4 | D,4 G,4 | F,4 F,4 | F,4 C,4 | D,4 E,4 | z2 E,2 A,4- | A,2 A,2 D,2 G,2- | %8
w: O|vos o-|mnes qui|tran- si-|tis per|vi- am,|at- ten\-|* di- te et|
 G,2 ^F,2 G,4 | D,8 || (D,4 G,4) | A,4 G,4- | G,4 D,4 | _B,3 B, A,4- | A,4 D,4 | C,4 C,4 | %16
w: * vi- de-|te.|Si *|est do\-|* lor|si- mi- lis|* si-|cut do-|
 D,4 D,4 | G,8 |][M:4/4] z8 | z8 | z8 | z8 | z8 |[M:4/4] z8 | z8 | z8 | z8 | z8 | z8 |] %29
w: lor me-|us.||||||||||||

